icons/circle/48/web-newsblur.svg

<svg xmlns="http://www.w3.org/2000/svg" viewBox="0 0 48 48">
  <defs>
    <linearGradient id="a" x1="1" x2="47" gradientUnits="userSpaceOnUse" gradientTransform="rotate(-90 24 24)">
      <stop stop-color="#e87018"/>
      <stop offset="1" stop-color="#ea7a2a"/>
    </linearGradient>
  </defs>
  <path d="M36.31 5c5.859 4.062 9.688 10.831 9.688 18.5 0 12.426-10.07 22.5-22.5 22.5-7.669 0-14.438-3.828-18.5-9.688a23.24 23.24 0 0 0 3.781 4.969 22.923 22.923 0 0 0 15.469 5.969c12.703 0 23-10.298 23-23a22.92 22.92 0 0 0-5.969-15.469A23.216 23.216 0 0 0 36.31 5zm4.969 3.781A22.911 22.911 0 0 1 47.498 24.5c0 12.703-10.297 23-23 23a22.909 22.909 0 0 1-15.719-6.219C12.939 45.425 18.662 48 24.998 48c12.703 0 23-10.298 23-23 0-6.335-2.575-12.06-6.719-16.219z" opacity=".05"/>
  <path d="M41.28 8.781a22.923 22.923 0 0 1 5.969 15.469c0 12.703-10.297 23-23 23A22.92 22.92 0 0 1 8.78 41.281 22.911 22.911 0 0 0 24.499 47.5c12.703 0 23-10.298 23-23A22.909 22.909 0 0 0 41.28 8.781z" opacity=".1"/>
  <path d="M31.25 2.375C39.865 5.529 46 13.792 46 23.505c0 12.426-10.07 22.5-22.5 22.5-9.708 0-17.971-6.135-21.12-14.75a23 23 0 0 0 44.875-7 23 23 0 0 0-16-21.875z" opacity=".2"/>
  <path d="M24 1c12.703 0 23 10.297 23 23S36.703 47 24 47 1 36.703 1 24 11.297 1 24 1z" fill="url(#a)"/>
  <path d="M40.03 7.531A22.922 22.922 0 0 1 45.999 23c0 12.703-10.297 23-23 23A22.92 22.92 0 0 1 7.53 40.031C11.708 44.322 17.54 47 23.999 47c12.703 0 23-10.298 23-23 0-6.462-2.677-12.291-6.969-16.469z" opacity=".1"/>
  <path d="M25 10a15 15 0 0 0-15 15 15 15 0 0 0 15 15 15 15 0 0 0 15-15 15 15 0 0 0-15-15m0 2a13 13 0 0 1 13 13 13 13 0 0 1-13 13 13 13 0 0 1-13-13 13 13 0 0 1 13-13m0 1a12 12 0 0 0-12 12 12 12 0 0 0 12 12 12 12 0 0 0 12-12 12 12 0 0 0-12-12m0 1a11 11 0 0 1 11 11 11 11 0 0 1-11 11 11 11 0 0 1-11-11 11 11 0 0 1 11-11m0 1a10 10 0 0 0-10 10 10 10 0 0 0 10 10 10 10 0 0 0 10-10 10 10 0 0 0-10-10m0 2a8 8 0 0 1 8 8 8 8 0 0 1-8 8 8 8 0 0 1-8-8 8 8 0 0 1 8-8zm0 1a7 7 0 0 0-7 7 7 7 0 0 0 7 7 7 7 0 0 0 7-7 7 7 0 0 0-7-7z" opacity=".1"/>
  <path d="M24 9A15 15 0 0 0 9 24a15 15 0 0 0 15 15 15 15 0 0 0 15-15A15 15 0 0 0 24 9m0 2a13 13 0 0 1 13 13 13 13 0 0 1-13 13 13 13 0 0 1-13-13 13 13 0 0 1 13-13m0 1a12 12 0 0 0-12 12 12 12 0 0 0 12 12 12 12 0 0 0 12-12 12 12 0 0 0-12-12m0 1a11 11 0 0 1 11 11 11 11 0 0 1-11 11 11 11 0 0 1-11-11 11 11 0 0 1 11-11m0 1a10 10 0 0 0-10 10 10 10 0 0 0 10 10 10 10 0 0 0 10-10 10 10 0 0 0-10-10m0 2a8 8 0 0 1 8 8 8 8 0 0 1-8 8 8 8 0 0 1-8-8 8 8 0 0 1 8-8zm0 1a7 7 0 0 0-7 7 7 7 0 0 0 7 7 7 7 0 0 0 7-7 7 7 0 0 0-7-7z" fill="#fbe569"/>
</svg>

<svg xmlns="http://www.w3.org/2000/svg" viewBox="0 0 48 48">
 <defs>
  <linearGradient id="linearGradient3764" x1="1" x2="47" gradientUnits="userSpaceOnUse" gradientTransform="matrix(0,-1,1,0,-1.5e-6,47.999998)">
   <stop style="stop-color:#e87018;stop-opacity:1"/>
   <stop offset="1" style="stop-color:#ea7a2a;stop-opacity:1"/>
  </linearGradient>
 </defs>
 <g>
  <path d="m 36.31 5 c 5.859 4.062 9.688 10.831 9.688 18.5 c 0 12.426 -10.07 22.5 -22.5 22.5 c -7.669 0 -14.438 -3.828 -18.5 -9.688 c 1.037 1.822 2.306 3.499 3.781 4.969 c 4.085 3.712 9.514 5.969 15.469 5.969 c 12.703 0 23 -10.298 23 -23 c 0 -5.954 -2.256 -11.384 -5.969 -15.469 c -1.469 -1.475 -3.147 -2.744 -4.969 -3.781 z m 4.969 3.781 c 3.854 4.113 6.219 9.637 6.219 15.719 c 0 12.703 -10.297 23 -23 23 c -6.081 0 -11.606 -2.364 -15.719 -6.219 c 4.16 4.144 9.883 6.719 16.219 6.719 c 12.703 0 23 -10.298 23 -23 c 0 -6.335 -2.575 -12.06 -6.719 -16.219 z" style="opacity:0.05"/>
  <path d="m 41.28 8.781 c 3.712 4.085 5.969 9.514 5.969 15.469 c 0 12.703 -10.297 23 -23 23 c -5.954 0 -11.384 -2.256 -15.469 -5.969 c 4.113 3.854 9.637 6.219 15.719 6.219 c 12.703 0 23 -10.298 23 -23 c 0 -6.081 -2.364 -11.606 -6.219 -15.719 z" style="opacity:0.1"/>
  <path d="m 31.25 2.375 c 8.615 3.154 14.75 11.417 14.75 21.13 c 0 12.426 -10.07 22.5 -22.5 22.5 c -9.708 0 -17.971 -6.135 -21.12 -14.75 a 23 23 0 0 0 44.875 -7 a 23 23 0 0 0 -16 -21.875 z" style="opacity:0.2"/>
 </g>
 <g>
  <path d="m 24 1 c 12.703 0 23 10.297 23 23 c 0 12.703 -10.297 23 -23 23 -12.703 0 -23 -10.297 -23 -23 0 -12.703 10.297 -23 23 -23 z" style="fill:url(#linearGradient3764);fill-opacity:1"/>
 </g>
 <g>
  <g>
   <!-- color: #ea7a2a -->
  </g>
 </g>
 <g>
  <path d="m 40.03 7.531 c 3.712 4.084 5.969 9.514 5.969 15.469 0 12.703 -10.297 23 -23 23 c -5.954 0 -11.384 -2.256 -15.469 -5.969 4.178 4.291 10.01 6.969 16.469 6.969 c 12.703 0 23 -10.298 23 -23 0 -6.462 -2.677 -12.291 -6.969 -16.469 z" style="opacity:0.1"/>
 </g>
 <path d="M 25 10 A 15 15 0 0 0 10 25 15 15 0 0 0 25 40 15 15 0 0 0 40 25 15 15 0 0 0 25 10 m 0 2 A 13 13 0 0 1 38 25 13 13 0 0 1 25 38 13 13 0 0 1 12 25 13 13 0 0 1 25 12 m 0 1 A 12 12 0 0 0 13 25 12 12 0 0 0 25 37 12 12 0 0 0 37 25 12 12 0 0 0 25 13 m 0 1 A 11 11 0 0 1 36 25 11 11 0 0 1 25 36 11 11 0 0 1 14 25 11 11 0 0 1 25 14 m 0 1 A 10 10 0 0 0 15 25 10 10 0 0 0 25 35 10 10 0 0 0 35 25 10 10 0 0 0 25 15 m 0 2 a 8 8 0 0 1 8 8 8 8 0 0 1 -8 8 8 8 0 0 1 -8 -8 8 8 0 0 1 8 -8 z m 0 1 a 7 7 0 0 0 -7 7 7 7 0 0 0 7 7 7 7 0 0 0 7 -7 7 7 0 0 0 -7 -7 z" style="fill:#000;opacity:0.1;fill-opacity:1;stroke:none"/>
 <path d="M 24 9 A 15 15 0 0 0 9 24 15 15 0 0 0 24 39 15 15 0 0 0 39 24 15 15 0 0 0 24 9 m 0 2 A 13 13 0 0 1 37 24 13 13 0 0 1 24 37 13 13 0 0 1 11 24 13 13 0 0 1 24 11 m 0 1 A 12 12 0 0 0 12 24 12 12 0 0 0 24 36 12 12 0 0 0 36 24 12 12 0 0 0 24 12 m 0 1 A 11 11 0 0 1 35 24 11 11 0 0 1 24 35 11 11 0 0 1 13 24 11 11 0 0 1 24 13 m 0 1 A 10 10 0 0 0 14 24 10 10 0 0 0 24 34 10 10 0 0 0 34 24 10 10 0 0 0 24 14 m 0 2 a 8 8 0 0 1 8 8 8 8 0 0 1 -8 8 8 8 0 0 1 -8 -8 8 8 0 0 1 8 -8 z m 0 1 a 7 7 0 0 0 -7 7 7 7 0 0 0 7 7 7 7 0 0 0 7 -7 7 7 0 0 0 -7 -7 z" style="fill:#fbe569;opacity:1;fill-opacity:1;stroke:none"/>
</svg>
